components/Common/Svg/svgs/treeStructure.svg

<svg width="40" height="40" viewBox="0 0 40 40" fill="none" xmlns="http://www.w3.org/2000/svg">
<path fill-rule="evenodd" clip-rule="evenodd" d="M22.5 7C23.6046 7 24.5 7.89543 24.5 9V14C24.5 15.1046 23.6046 16 22.5 16H21V19H29C30.0609 19 31.0783 19.4214 31.8284 20.1716C32.5786 20.9217 33 21.9391 33 23V24H35C36.1046 24 37 24.8954 37 26V32C37 33.1046 36.1046 34 35 34H29C27.8954 34 27 33.1046 27 32V26C27 24.8954 27.8954 24 29 24H31V23C31 22.4696 30.7893 21.9609 30.4142 21.5858C30.0391 21.2107 29.5304 21 29 21H21V24H23C24.1046 24 25 24.8954 25 26V32C25 33.1046 24.1046 34 23 34H17C15.8954 34 15 33.1046 15 32V26C15 24.8954 15.8954 24 17 24H19V21H11C10.4696 21 9.96086 21.2107 9.58579 21.5858C9.21071 21.9609 9 22.4696 9 23V24H11C12.1046 24 13 24.8954 13 26V32C13 33.1046 12.1046 34 11 34H5C3.89543 34 3 33.1046 3 32V26C3 24.8954 3.89543 24 5 24H7V23C7 21.9391 7.42143 20.9217 8.17157 20.1716C8.92172 19.4214 9.93913 19 11 19H19V16H17.5C16.3954 16 15.5 15.1046 15.5 14V9C15.5 7.89543 16.3954 7 17.5 7H22.5ZM8 26H5V32H11V26H8ZM32 26H29V32H35V26H32ZM20 14L22.5 14V9H17.5V14L20 14ZM23 32V26H17V32H23Z" fill="#161616"/>
</svg>

<svg width="40" height="40" viewBox="0 0 40 40" fill="none" xmlns="http://www.w3.org/2000/svg"><path fill-rule="evenodd" clip-rule="evenodd" d="M22.5 7a2 2 0 0 1 2 2v5a2 2 0 0 1-2 2H21v3h8a4 4 0 0 1 4 4v1h2a2 2 0 0 1 2 2v6a2 2 0 0 1-2 2h-6a2 2 0 0 1-2-2v-6a2 2 0 0 1 2-2h2v-1a2 2 0 0 0-2-2h-8v3h2a2 2 0 0 1 2 2v6a2 2 0 0 1-2 2h-6a2 2 0 0 1-2-2v-6a2 2 0 0 1 2-2h2v-3h-8a2 2 0 0 0-2 2v1h2a2 2 0 0 1 2 2v6a2 2 0 0 1-2 2H5a2 2 0 0 1-2-2v-6a2 2 0 0 1 2-2h2v-1a4 4 0 0 1 4-4h8v-3h-1.5a2 2 0 0 1-2-2V9a2 2 0 0 1 2-2h5ZM8 26H5v6h6v-6H8Zm24 0h-3v6h6v-6h-3ZM20 14h2.5V9h-5v5H20Zm3 18v-6h-6v6h6Z" fill="#161616"/></svg>
